src/assets/svg/th6.svg

<svg width="30" height="29" viewBox="0 0 30 29" fill="none" xmlns="http://www.w3.org/2000/svg">
<path d="M2.4712 7.54078L14.7132 0.57527L26.9553 7.54078V21.4592L14.7132 28.4247L2.4712 21.4592V7.54078Z" fill="url(#paint0_linear_6591_41797)" stroke="url(#paint1_linear_6591_41797)"/>
<path d="M19.9164 12.44H13.8524L13.6124 14.12H19.6764L18.8604 20.04H10.8284C10.5191 20.04 10.2738 19.9387 10.0924 19.736C9.9111 19.5227 9.84177 19.2613 9.88444 18.952L11.0204 10.936H20.1244L19.9164 12.44ZM13.4044 15.64L12.9884 18.52H16.0284L16.4284 15.64H13.4044Z" fill="white"/>
<defs>
<linearGradient id="paint0_linear_6591_41797" x1="7.25" y1="3.83824" x2="22.1765" y2="26.8676" gradientUnits="userSpaceOnUse">
<stop stop-color="#D0B4FF"/>
<stop offset="0.848958" stop-color="#6633BA"/>
</linearGradient>
<linearGradient id="paint1_linear_6591_41797" x1="5.82399" y1="7.38182" x2="27.9311" y2="22.1149" gradientUnits="userSpaceOnUse">
<stop stop-color="#A400FF"/>
<stop offset="1" stop-color="#209EFF"/>
<stop offset="1" stop-color="#6BBCFB"/>
</linearGradient>
</defs>
</svg>

<svg width="30" height="29" fill="none" xmlns="http://www.w3.org/2000/svg"><path d="M2.471 7.54 14.713.576l12.242 6.966v13.918l-12.242 6.966-12.242-6.966z" fill="url(#prefix__a)" stroke="url(#prefix__b)"/><path d="M19.916 12.44h-6.064l-.24 1.68h6.064l-.816 5.92h-8.032q-.463 0-.736-.304-.27-.32-.208-.784l1.136-8.016h9.104zm-6.512 3.2-.416 2.88h3.04l.4-2.88z" fill="#fff"/><defs><linearGradient id="prefix__a" x1="7.25" y1="3.838" x2="22.177" y2="26.868" gradientUnits="userSpaceOnUse"><stop stop-color="#D0B4FF"/><stop offset=".849" stop-color="#6633BA"/></linearGradient><linearGradient id="prefix__b" x1="5.824" y1="7.382" x2="27.931" y2="22.115" gradientUnits="userSpaceOnUse"><stop stop-color="#A400FF"/><stop offset="1" stop-color="#209EFF"/><stop offset="1" stop-color="#6BBCFB"/></linearGradient></defs></svg>
